X:1
T:Title
%%score 1 2 3 4
L:1/8
M:3/2
K:C
V:1 treble nm="Part_1"
V:2 treble nm="Part_2"
V:3 treble-8 nm="Part_3"
V:4 treble-8 nm="Part_4"
V:1
 z12 | z12 | z12 | E4 E4 F4 | E4 D4 z4 | G4 G4 A2 B2 | c4 !fermata!c8 | z12 | z12 | z12 | %10
 c4 d4 c4 | c4 z4 B4 | A4 c4 B2 G2- | G2 A3 G G4 F2 | G12 | z4 z4 G4 | A4 c4 B4 | z4 A4 G2 c2 | %18
 B2 A3 G G4 F2 | G4 z4 A4 | c4 G4 G4 | z4 F4 A3 G | F2 E3 D D4 C2 | D12 | z4 z4 G4 | G4 G4 E4 | %26
 z4 G4 A2 c2 | B2 A3 G G4 ^F2 | G4 z4 A4 | c4 G4 G2 A2 | G2 F3 E E4 D2 | E12 |] %32
V:2
 z12 | E4 E4 F4 | E6 DC D4 | G4 G4 A4 | B6 A2 c4 | c6 B2 A2 GF | !fermata!E12 | z12 | c4 d4 c4 | %9
 c4 B2 A3 G E2- | E2 A4 G2 A3 G | EF G2 A F2 E G4 | z4 E2 F2 G4 | E4 D2 G2 A2 c2 | B2 d3 cBA B4 | %15
 c2 BA G4 z4 | F4 E2 F2 G4 | E4 F2 E2 C4 | D2 E2 F2 G2 A2 c2 | B4 z2 B2 c3 B | A2 GF E4 D4 | %21
 z2 G2 A3 G F2 ED | C3 D E2 F2 G4 | A4 F4 z4 | G4 G4 G4 | E3 FGA B2 cBAG | F3 E G4 z4 | z4 z4 A4 | %28
 B6 A2 c3 B | A2 GF E4 z2 E2 | G2 A3 G E2 F2 A2 | [GB]12 |] %32
V:3
 z12 | z12 | E4 E4 F4 | E8 D4 | G4 G4 A3 B | c4 e4 d4 | !fermata!c12 | z12 | z12 | c4 d4 c4 | %10
 c4 B4 A4 | c3 B A4 G4 | F4 A4 G4 | c4 d2 B2 A4 | G4 z4 G4 | A4 c4 B4 | z4 A4 G4 | A6 c4 A2 | %18
 G2 c2 d2 B2 A4 | G8 z4 | A4 c4 G4 | G4 z4 F4 | A4 G2 F2 E4 | D4 z4 G4 | G4 G4 E4 | z4 G4 G4 | %26
 A4 G4 F2 A2 | G2 c2 d2 B2 A4 | G8 z4 | A4 c4 G2 c2 | B2 A4 G2 F4 | E12 |] %32
V:4
 E4 E4 F4 | E8 D4 | G4 G4 A3 B | c6 B2 d4 | z4 d4 c4 | C8 z4 | C12 | c4 d4 c4 | c4 B4 A4 | %9
 F3 E D4 z2 A2 | A4 G4 z4 | C4 D4 d2 e2 | f3 e c4 d4 | z2 A2 D2 d4 c2 | d4 z2 d2 d4 | c4 C4 E4 | %16
 F3 G AB c2 d4 | c4 F2 C4 F2 | G2 A2 D2 G2 c4 | d8 c4 | F4 C4 z4 | E4 D2 d2 c2 A2- | %22
 A2 F2 C2 D2 E2 G2 | F4 A4 z2 B2 | B3 c d4 e4 | c4 d4 c4 | z2 c2 d2 e2 f2 c2 | d2 A2 D2 G2 D4 | %28
 d8 c2 F2- | FD F2 C4 z2 C2 | E2 F2 D2 G2 A4 | B12 |] %32

